flaticon/transport/gasoline.svg

<svg xmlns="http://www.w3.org/2000/svg" width="32" height="32" viewBox="0 0 24 24">
    <path d="M 23.816406 7.429688 L 19.566406 1.074219 C 19.335938 0.753906 18.972656 0.570312 18.605469 0.570312 L 6.535156 0.570312 C 6.167969 0.570312 5.804688 0.753906 5.574219 1.117188 L 4.964844 2.027344 L 3.699219 1.027344 C 3.515625 0.84375 3.242188 0.796875 2.921875 0.84375 C 2.648438 0.84375 2.421875 1.027344 2.28125 1.210938 L 0.226562 3.953125 C -0.140625 4.410156 -0.046875 5.050781 0.410156 5.417969 L 1.917969 6.585938 L 1.324219 7.472656 C 1.1875 7.65625 1.140625 7.886719 1.140625 8.113281 L 1.140625 22.285156 C 1.140625 22.925781 1.644531 23.429688 2.28125 23.429688 L 22.855469 23.429688 C 23.496094 23.429688 24 22.925781 24 22.242188 L 24 8.066406 C 24 7.839844 23.953125 7.609375 23.816406 7.429688 Z M 2.421875 5.828125 L 0.957031 4.683594 C 0.910156 4.640625 0.910156 4.546875 0.910156 4.5 L 2.96875 1.757812 C 2.96875 1.714844 3.015625 1.714844 3.058594 1.714844 C 3.105469 1.714844 3.152344 1.714844 3.152344 1.757812 L 4.476562 2.761719 L 3.449219 4.296875 Z M 23.085938 22.285156 C 23.085938 22.425781 22.996094 22.515625 22.855469 22.515625 L 2.28125 22.515625 C 2.144531 22.515625 2.054688 22.425781 2.054688 22.285156 L 2.054688 8.113281 C 2.054688 8.066406 2.054688 8.023438 2.101562 7.976562 L 2.648438 7.152344 L 2.949219 6.695312 L 6.351562 1.574219 C 6.398438 1.53125 6.445312 1.484375 6.535156 1.484375 L 18.605469 1.484375 C 18.695312 1.484375 18.742188 1.53125 18.789062 1.574219 L 23.039062 7.976562 C 23.085938 8.023438 23.085938 8.066406 23.085938 8.113281 Z M 23.085938 22.285156"/>
    <path d="M14.949219 10.628906L10.191406 10.628906C9.734375 10.628906 9.371094 10.996094 9.371094 11.453125L9.371094 15.292969C9.371094 15.75 9.734375 16.113281 10.191406 16.113281L14.949219 16.113281C15.40625 16.113281 15.769531 15.75 15.769531 15.292969L15.769531 11.453125C15.769531 10.996094 15.40625 10.628906 14.949219 10.628906zM14.855469 15.199219L10.285156 15.199219 10.285156 11.542969 14.855469 11.542969zM6.945312 7.566406C6.761719 7.382812 6.488281 7.382812 6.304688 7.566406 6.125 7.75 6.125 8.023438 6.304688 8.207031L8.136719 10.035156C8.226562 10.125 8.316406 10.171875 8.457031 10.171875 8.59375 10.171875 8.683594 10.125 8.773438 10.035156 8.957031 9.851562 8.957031 9.578125 8.773438 9.394531zM18.195312 7.566406L16.363281 9.394531C16.183594 9.578125 16.183594 9.851562 16.363281 10.035156 16.457031 10.125 16.546875 10.171875 16.683594 10.171875 16.820312 10.171875 16.914062 10.125 17.003906 10.035156L18.832031 8.207031C19.015625 8.023438 19.015625 7.75 18.832031 7.566406 18.652344 7.382812 18.375 7.382812 18.195312 7.566406zM17.003906 16.710938C16.820312 16.527344 16.546875 16.527344 16.363281 16.710938 16.183594 16.890625 16.183594 17.167969 16.363281 17.347656L18.195312 19.179688C18.285156 19.269531 18.375 19.316406 18.511719 19.316406 18.652344 19.316406 18.742188 19.269531 18.832031 19.179688 19.015625 18.996094 19.015625 18.722656 18.832031 18.539062zM8.136719 16.710938L6.304688 18.539062C6.125 18.722656 6.125 18.996094 6.304688 19.179688 6.398438 19.269531 6.488281 19.316406 6.625 19.316406 6.761719 19.316406 6.855469 19.269531 6.945312 19.179688L8.773438 17.347656C8.957031 17.167969 8.957031 16.890625 8.773438 16.710938 8.59375 16.527344 8.316406 16.527344 8.136719 16.710938zM8.59375 6.054688L16.59375 6.054688C17.140625 6.054688 17.597656 5.597656 17.597656 5.003906L17.597656 3.863281C17.597656 3.3125 17.140625 2.855469 16.59375 2.855469L8.59375 2.855469C8.042969 2.855469 7.585938 3.3125 7.585938 3.863281L7.585938 5.050781C7.585938 5.597656 8.042969 6.054688 8.59375 6.054688zM8.5 3.863281C8.5 3.816406 8.546875 3.769531 8.59375 3.769531L16.59375 3.769531C16.640625 3.769531 16.683594 3.816406 16.683594 3.863281L16.683594 5.003906C16.683594 5.050781 16.640625 5.097656 16.59375 5.097656L8.59375 5.097656C8.546875 5.097656 8.5 5.050781 8.5 5.003906zM8.5 3.863281"/>
</svg>

<svg xmlns="http://www.w3.org/2000/svg" width="32" height="32" viewBox="0 0 24 24">
    <path d="M23.816 7.43l-4.25-6.356a1.195 1.195 0 0 0-.96-.504H6.535c-.368 0-.731.184-.962.547l-.61.91-1.265-1c-.183-.183-.457-.23-.777-.183-.274 0-.5.183-.64.367L.226 3.953c-.368.457-.274 1.098.183 1.465l1.508 1.168-.594.887c-.137.183-.183.414-.183.64v14.172c0 .64.504 1.145 1.14 1.145h20.574c.641 0 1.145-.504 1.145-1.188V8.066c0-.226-.047-.457-.184-.636zM2.422 5.828L.957 4.684C.91 4.64.91 4.547.91 4.5L2.97 1.758c0-.043.047-.043.09-.043.046 0 .093 0 .093.043l1.325 1.004-1.028 1.535zm20.664 16.457c0 .14-.09.23-.23.23H2.28c-.136 0-.226-.09-.226-.23V8.113c0-.047 0-.09.047-.136l.546-.825.301-.457 3.403-5.12c.046-.044.093-.09.183-.09h12.07c.09 0 .137.046.184.09l4.25 6.402c.047.046.047.09.047.136zm0 0"/>
    <path d="M14.95 10.629H10.19a.819.819 0 0 0-.82.824v3.84c0 .457.363.82.82.82h4.758c.457 0 .82-.363.82-.82v-3.84a.819.819 0 0 0-.82-.824zm-.095 4.57h-4.57v-3.656h4.57zm0 0M6.945 7.566a.441.441 0 0 0-.64 0 .448.448 0 0 0 0 .641l1.832 1.828c.09.09.18.137.32.137a.41.41 0 0 0 .316-.137.441.441 0 0 0 0-.64zm0 0M18.195 7.566l-1.832 1.829a.448.448 0 0 0 0 .64c.094.09.184.137.32.137.137 0 .231-.047.32-.137l1.829-1.828a.441.441 0 0 0 0-.64.437.437 0 0 0-.637 0zm0 0M17.004 16.71a.441.441 0 0 0-.64 0 .443.443 0 0 0 0 .638l1.831 1.832c.09.09.18.136.317.136.14 0 .23-.046.32-.136a.441.441 0 0 0 0-.64zm0 0M8.137 16.71l-1.832 1.83a.448.448 0 0 0 0 .64c.093.09.183.136.32.136s.23-.046.32-.136l1.828-1.832a.437.437 0 0 0 0-.637.437.437 0 0 0-.636 0zm0 0M8.594 6.055h8c.547 0 1.004-.457 1.004-1.051v-1.14c0-.551-.457-1.009-1.004-1.009h-8c-.551 0-1.008.458-1.008 1.008v1.188c0 .547.457 1.004 1.008 1.004zM8.5 3.863a.1.1 0 0 1 .094-.093h8c.047 0 .09.046.09.093v1.14c0 .048-.043.095-.09.095h-8a.1.1 0 0 1-.094-.094zm0 0"/>
</svg>
